assets/svg/1f1e8-1f1fb.svg

<svg xmlns="http://www.w3.org/2000/svg" viewBox="0 0 64 64" enable-background="new 0 0 64 64"><g fill="#2a5f9e"><path d="m32 62c9.814 0 18.527-4.713 24-12h-48c5.473 7.287 14.186 12 24 12"/><path d="M32,2C15.432,2,2,15.432,2,32h60C62,15.432,48.568,2,32,2z"/></g><path fill="#fff" d="m61.4 38c.394-1.939.602-3.945.602-6h-60c0 2.055.208 4.061.602 6h58.796"/><path fill="#ed4c5c" d="m4.504 44h54.992c.834-1.906 1.479-3.912 1.902-6h-58.796c.423 2.088 1.069 4.094 1.902 6"/><path fill="#fff" d="M4.504,44C5.439,46.141,6.613,48.154,8,50h48c1.387-1.846,2.561-3.859,3.496-6H4.504z"/><g fill="#ffce31"><path d="m25 26.06l1.24.94-.472-1.526 1.232-.947-1.525-.004-.475-1.523-.475 1.523-1.525.004 1.23.947-.466 1.526z"/><path d="m25 56.06l1.24.94-.472-1.52 1.232-.95-1.525-.01-.475-1.52-.475 1.52-1.525.01 1.23.95-.466 1.52z"/><path d="m36 36.06l1.24.94-.472-1.525 1.232-.948-1.525-.004-.475-1.523-.475 1.523-1.525.004 1.23.948-.466 1.525z"/><path d="m18 29.06l1.236.94-.468-1.526 1.232-.947-1.525-.004-.475-1.523-.475 1.523-1.525.004 1.232.947-.468 1.526z"/><path d="m32 29.06l1.24.94-.472-1.526 1.232-.947-1.525-.004-.475-1.523-.475 1.523-1.525.004 1.23.947-.466 1.526z"/><path d="m13 36.06l1.236.94-.468-1.525 1.232-.948-1.525-.004-.475-1.523-.475 1.523-1.525.004 1.232.948-.468 1.525z"/><path d="m36 48.06l1.24.94-.472-1.52 1.232-.953-1.525-.004-.475-1.523-.475 1.523-1.525.004 1.23.953-.466 1.52z"/><path d="m13 48.06l1.236.94-.468-1.52 1.232-.953-1.525-.004-.475-1.523-.475 1.523-1.525.004 1.232.953-.468 1.52z"/><path d="m31 54.06l1.24.94-.472-1.52 1.232-.95-1.525-.01-.475-1.52-.475 1.52-1.525.01 1.23.95-.466 1.52z"/><path d="m18 54.06l1.236.94-.468-1.52 1.232-.95-1.525-.01-.475-1.52-.475 1.52-1.525.01 1.232.95-.468 1.52z"/></g></svg>

<svg xmlns="http://www.w3.org/2000/svg" width="64" height="64" viewBox="0 0 64 64"><path fill="#2A5F9E" d="M32 62c9.814 0 18.527-4.713 24-12H8c5.473 7.287 14.186 12 24 12zM32 2C15.432 2 2 15.432 2 32h60C62 15.432 48.568 2 32 2z"/><path fill="#FFF" d="M61.398 38c.394-1.939.602-3.945.602-6H2c0 2.055.208 4.061.602 6h58.796z"/><path fill="#ED4C5C" d="M4.504 44h54.992a29.64 29.64 0 0 0 1.902-6H2.602a29.703 29.703 0 0 0 1.902 6z"/><path fill="#FFF" d="M4.504 44A29.92 29.92 0 0 0 8 50h48a29.92 29.92 0 0 0 3.496-6H4.504z"/><path fill="#FFCE31" d="M25 26.062l1.236.938-.468-1.526L27 24.527l-1.525-.004L25 23l-.475 1.523-1.525.004 1.232.947L23.764 27zM25 56.063l1.236.937-.468-1.525L27 54.527l-1.525-.004L25 53l-.475 1.523-1.525.004 1.232.948L23.764 57zM36 36.063l1.236.937-.468-1.525L38 34.527l-1.525-.004L36 33l-.475 1.523-1.525.004 1.232.948L34.764 37zM18 29.062l1.236.938-.468-1.526L20 27.527l-1.525-.004L18 26l-.475 1.523-1.525.004 1.232.947L16.764 30zM32 29.062l1.236.938-.468-1.526L34 27.527l-1.525-.004L32 26l-.475 1.523-1.525.004 1.232.947L30.764 30zM13 36.063l1.236.937-.468-1.525L15 34.527l-1.525-.004L13 33l-.475 1.523-1.525.004 1.232.948L11.764 37zM36 48.063l1.236.937-.468-1.525L38 46.527l-1.525-.004L36 45l-.475 1.523-1.525.004 1.232.948L34.764 49zM13 48.063l1.236.937-.468-1.525L15 46.527l-1.525-.004L13 45l-.475 1.523-1.525.004 1.232.948L11.764 49zM31 54.063l1.236.937-.468-1.525L33 52.527l-1.525-.004L31 51l-.475 1.523-1.525.004 1.232.948L29.764 55zM18 54.063l1.236.937-.468-1.525L20 52.527l-1.525-.004L18 51l-.475 1.523-1.525.004 1.232.948L16.764 55z"/></svg>
